X:293
T:He Was Not Willing
%%stretchlast false
M:6/8
L:1/4
K:Eb clef=C1
"^I"[E,B,EG]3/4 [E,B,EG]/4 [E,B,EG]/ [E,B,EG]/ [E,B,EG]/ [E,B,EG]/ | "^IV²"[E,CEA]3/4 [E,CEA]/4 [E,CEA]/ "^I"[E,B,EG] [E,G,E]/ | [E,EGB]3/4 [E,EGB]/4 [E,EGB]/ [E,EGB]/ [E,EGB]/ [E,EGB]/ | "^IV²"[E,EAc]/ "^I"[E,EGB]/ [E,B,EG]/ "^V"[B,,B,DF]3/2 | "^I"[E,B,EG]3/4 [E,B,EG]/4 [E,B,EG]/ [E,B,EG]/ [E,B,EG]/ [E,B,EG]/ | "^IV²"[E,CEA]3/4 [E,CEA]/4 [E,CEA]/ "^I"[E,B,EG] [E,G,E]/ | [E,EGB]3/4 [E,EGB]/4 [E,EGB]/ "^IV²"[E,EAc]/ "^I"[E,EGB]/ [E,B,EG]/ | "^I¹"[G,B,E]/ "^I²"[B,EG]/ "^V7"[B,,A,DF]/ "^I"[E,G,E]3/2 | [E,B,EG]3/4 [E,B,EG]/4 [E,B,EG]/ [E,B,EG]/ [E,B,EG]/ [E,B,EG]/ | "^IV²"[E,CEA]3/4 [E,CEA]/4 [E,CEA]/ "^I"[E,B,EG] [E,G,E]/ | [E,EGB]3/4 [E,EGB]/4 [E,EGB]/ "^IV²"[E,EAc]/ "^I"[E,EGB]/ [E,B,EG]/ | "^I¹"[G,B,E]/ "^I²"[B,EG]/ "^V7"[B,,A,DF]/ "^I"[E,G,E]3/2 | "^vi"[C,G,Ec]3/4 [C,G,Ec]/4 [C,G,Ec]/ [C,G,Ec]/ [C,G,Ec]/ [C,G,Ec]/ | "^vi²"[G,CEG]3/4 [G,CEG]/4 [G,CEG]/ [G,CEG] [G,CEG]/ | "^V"[B,,B,DB]3/4 [B,,B,DB]/4 [B,,B,DB]/ [B,,B,DB]/ [B,,B,DB]/ [B,,B,DB]/ | "^II"[F,=A,EF]3/4 "^I"[F,B,EG]/4 "^II7"[F,CE=A]/ "^V"[B,,B,DB]3/2 |]
